icons/circle/48/logisim.svg

<svg xmlns="http://www.w3.org/2000/svg" viewBox="0 0 48 48">
 <defs>
  <linearGradient id="linearGradient3997" y1="1" x2="0" y2="47" gradientUnits="userSpaceOnUse">
   <stop style="stop-color:#f8fadc;stop-opacity:1"/>
   <stop offset="1" style="stop-color:#f4f7cb;stop-opacity:1"/>
  </linearGradient>
  <radialGradient id="radialGradient3911" cx="27" cy="24" r="11" gradientTransform="matrix(1,0,0,1.0909091,0,-2.1818182)" gradientUnits="userSpaceOnUse">
   <stop style="stop-color:#cacaca;stop-opacity:1"/>
   <stop offset="1" style="stop-color:#bbb;stop-opacity:1"/>
  </radialGradient>
 </defs>
 <g>
  <path d="m 36.31 5 c 5.859 4.062 9.688 10.831 9.688 18.5 c 0 12.426 -10.07 22.5 -22.5 22.5 c -7.669 0 -14.438 -3.828 -18.5 -9.688 c 1.037 1.822 2.306 3.499 3.781 4.969 c 4.085 3.712 9.514 5.969 15.469 5.969 c 12.703 0 23 -10.298 23 -23 c 0 -5.954 -2.256 -11.384 -5.969 -15.469 c -1.469 -1.475 -3.147 -2.744 -4.969 -3.781 z m 4.969 3.781 c 3.854 4.113 6.219 9.637 6.219 15.719 c 0 12.703 -10.297 23 -23 23 c -6.081 0 -11.606 -2.364 -15.719 -6.219 c 4.16 4.144 9.883 6.719 16.219 6.719 c 12.703 0 23 -10.298 23 -23 c 0 -6.335 -2.575 -12.06 -6.719 -16.219 z" style="opacity:0.05"/>
  <path d="m 41.28 8.781 c 3.712 4.085 5.969 9.514 5.969 15.469 c 0 12.703 -10.297 23 -23 23 c -5.954 0 -11.384 -2.256 -15.469 -5.969 c 4.113 3.854 9.637 6.219 15.719 6.219 c 12.703 0 23 -10.298 23 -23 c 0 -6.081 -2.364 -11.606 -6.219 -15.719 z" style="opacity:0.1"/>
  <path d="m 31.25 2.375 c 8.615 3.154 14.75 11.417 14.75 21.13 c 0 12.426 -10.07 22.5 -22.5 22.5 c -9.708 0 -17.971 -6.135 -21.12 -14.75 a 23 23 0 0 0 44.875 -7 a 23 23 0 0 0 -16 -21.875 z" style="opacity:0.2"/>
 </g>
 <g>
  <path d="m 24 1 c 12.703 0 23 10.297 23 23 c 0 12.703 -10.297 23 -23 23 -12.703 0 -23 -10.297 -23 -23 0 -12.703 10.297 -23 23 -23 z" style="fill:url(#linearGradient3997);fill-opacity:1"/>
  <path d="m 17 13 c 0.287 1.044 0.528 2.04 0.75 3 l -15.318 0 c -0.476 1.283 -0.836 2.621 -1.078 4 l 17.18 0 c 0.501 3.441 0.501 6.559 0 10 l -16.736 0 c 0.375 1.39 0.873 2.728 1.488 4 l 14.467 0 c -0.222 0.96 -0.463 1.956 -0.75 3 c 11.297 0 17.948 -6.59 20.625 -10 l 9.174 0 c 0.128 -0.983 0.201 -1.982 0.201 -3 c 0 -0.335 -0.011 -0.668 -0.025 -1 l -9.35 0 c -2.677 -3.41 -9.328 -10 -20.625 -10 z" style="fill:#000;opacity:0.1;fill-opacity:1"/>
  <path d="m 28 22 l 0 4 l 18.908 0 c 0.057 -0.66 0.092 -1.326 0.092 -2 c 0 -0.674 -0.035 -1.34 -0.092 -2 l -18.908 0 z" style="fill:#53f551;fill-opacity:1"/>
  <path d="m 1.551 29 c 0.307 1.384 0.734 2.723 1.277 4 l 19.17 0 l 0 -4 l -20.449 0 z" style="fill:#53f551;fill-opacity:1"/>
  <path d="m 2.828 15 c -0.544 1.277 -0.97 2.616 -1.277 4 l 20.449 0 l 0 -4 l -19.17 0 z" style="fill:#f64848;fill-opacity:1"/>
 </g>
 <g>
  <g>
   <g transform="translate(1,1)">
    <g style="opacity:0.1">
     <!-- color: #efc07d -->
    </g>
   </g>
  </g>
 </g>
 <g>
  <g>
   <!-- color: #efc07d -->
  </g>
 </g>
 <g>
  <path d="m 40.03 7.531 c 3.712 4.084 5.969 9.514 5.969 15.469 0 12.703 -10.297 23 -23 23 c -5.954 0 -11.384 -2.256 -15.469 -5.969 4.178 4.291 10.01 6.969 16.469 6.969 c 12.703 0 23 -10.298 23 -23 0 -6.462 -2.677 -12.291 -6.969 -16.469 z" style="opacity:0.1"/>
 </g>
 <path d="m 16 36 c 2.538 -9.231 2.538 -14.769 0 -24 15.231 0 22 12 22 12 0 0 -6.769 12 -22 12 z" style="fill:url(#radialGradient3911);fill-opacity:1;stroke:none;fill-rule:nonzero"/>
</svg>

<svg xmlns="http://www.w3.org/2000/svg" viewBox="0 0 48 48">
  <defs>
    <linearGradient id="a" y1="1" x2="0" y2="47" gradientUnits="userSpaceOnUse">
      <stop stop-color="#f8fadc"/>
      <stop offset="1" stop-color="#f4f7cb"/>
    </linearGradient>
    <radialGradient id="b" cx="27" cy="24" r="11" gradientTransform="matrix(1 0 0 1.0909 0 -2.182)" gradientUnits="userSpaceOnUse">
      <stop stop-color="#cacaca"/>
      <stop offset="1" stop-color="#bbb"/>
    </radialGradient>
  </defs>
  <path d="M36.31 5c5.859 4.062 9.688 10.831 9.688 18.5 0 12.426-10.07 22.5-22.5 22.5-7.669 0-14.438-3.828-18.5-9.688a23.24 23.24 0 0 0 3.781 4.969 22.923 22.923 0 0 0 15.469 5.969c12.703 0 23-10.298 23-23a22.92 22.92 0 0 0-5.969-15.469A23.216 23.216 0 0 0 36.31 5zm4.969 3.781A22.911 22.911 0 0 1 47.498 24.5c0 12.703-10.297 23-23 23a22.909 22.909 0 0 1-15.719-6.219C12.939 45.425 18.662 48 24.998 48c12.703 0 23-10.298 23-23 0-6.335-2.575-12.06-6.719-16.219z" opacity=".05"/>
  <path d="M41.28 8.781a22.923 22.923 0 0 1 5.969 15.469c0 12.703-10.297 23-23 23A22.92 22.92 0 0 1 8.78 41.281 22.911 22.911 0 0 0 24.499 47.5c12.703 0 23-10.298 23-23A22.909 22.909 0 0 0 41.28 8.781z" opacity=".1"/>
  <path d="M31.25 2.375C39.865 5.529 46 13.792 46 23.505c0 12.426-10.07 22.5-22.5 22.5-9.708 0-17.971-6.135-21.12-14.75a23 23 0 0 0 44.875-7 23 23 0 0 0-16-21.875z" opacity=".2"/>
  <path d="M24 1c12.703 0 23 10.297 23 23S36.703 47 24 47 1 36.703 1 24 11.297 1 24 1z" fill="url(#a)"/>
  <path d="M17 13a74.64 74.64 0 0 1 .75 3H2.432a22.845 22.845 0 0 0-1.078 4h17.18c.501 3.441.501 6.559 0 10H1.798c.375 1.39.873 2.728 1.488 4h14.467a74.64 74.64 0 0 1-.75 3c11.297 0 17.948-6.59 20.625-10h9.174c.128-.983.201-1.982.201-3 0-.335-.011-.668-.025-1h-9.35c-2.677-3.41-9.328-10-20.625-10z" opacity=".1"/>
  <path d="M28 22v4h18.908c.057-.66.092-1.326.092-2 0-.674-.035-1.34-.092-2H28zM1.551 29a22.883 22.883 0 0 0 1.277 4h19.17v-4H1.549z" fill="#53f551"/>
  <path d="M2.828 15a22.799 22.799 0 0 0-1.277 4H22v-4H2.83z" fill="#f64848"/>
  <g>
    <path d="M40.03 7.531A22.922 22.922 0 0 1 45.999 23c0 12.703-10.297 23-23 23A22.92 22.92 0 0 1 7.53 40.031C11.708 44.322 17.54 47 23.999 47c12.703 0 23-10.298 23-23 0-6.462-2.677-12.291-6.969-16.469z" opacity=".1"/>
  </g>
  <path d="M16 36c2.538-9.231 2.538-14.769 0-24 15.231 0 22 12 22 12s-6.769 12-22 12z" fill="url(#b)"/>
</svg>
